Catalina-light/apps/scalable/playonlinux.svg

<?xml version="1.0" encoding="UTF-8" standalone="no"?>
<!-- Created with Inkscape (http://www.inkscape.org/) -->

<svg
   xmlns:dc="http://purl.org/dc/elements/1.1/"
   xmlns:cc="http://creativecommons.org/ns#"
   xmlns:rdf="http://www.w3.org/1999/02/22-rdf-syntax-ns#"
   xmlns:svg="http://www.w3.org/2000/svg"
   xmlns="http://www.w3.org/2000/svg"
   xmlns:xlink="http://www.w3.org/1999/xlink"
   xmlns:sodipodi="http://sodipodi.sourceforge.net/DTD/sodipodi-0.dtd"
   xmlns:inkscape="http://www.inkscape.org/namespaces/inkscape"
   version="1.1"
   id="svg2"
   width="128"
   height="128"
   viewBox="0 0 128 128"
   sodipodi:docname="playonlinux.svg"
   inkscape:version="0.92.2pre0 (973e216, 2017-07-25)">
  <metadata
     id="metadata8">
    <rdf:RDF>
      <cc:Work
         rdf:about="">
        <dc:format>image/svg+xml</dc:format>
        <dc:type
           rdf:resource="http://purl.org/dc/dcmitype/StillImage" />
        <dc:title></dc:title>
      </cc:Work>
    </rdf:RDF>
  </metadata>
  <defs
     id="defs6">
    <linearGradient
       inkscape:collect="always"
       id="linearGradient838">
      <stop
         style="stop-color:#ff94a7;stop-opacity:1"
         offset="0"
         id="stop834" />
      <stop
         id="stop842"
         offset="0.5"
         style="stop-color:#aae0b8;stop-opacity:1" />
      <stop
         style="stop-color:#9abfe2;stop-opacity:1"
         offset="1"
         id="stop836" />
    </linearGradient>
    <linearGradient
       inkscape:collect="always"
       xlink:href="#linearGradient838"
       id="linearGradient840"
       x1="1.4453142"
       y1="64.226161"
       x2="127.22057"
       y2="64.226161"
       gradientUnits="userSpaceOnUse" />
    <linearGradient
       id="linearGradient3866">
      <stop
         style="stop-color:#000000;stop-opacity:0.52083331"
         offset="0"
         id="stop3868" />
      <stop
         style="stop-color:#2883c3;stop-opacity:0;"
         offset="1"
         id="stop3870" />
    </linearGradient>
    <linearGradient
       id="linearGradient3874">
      <stop
         style="stop-color:#000d0e;stop-opacity:0.84105963;"
         offset="0"
         id="stop3876" />
      <stop
         style="stop-color:#000000;stop-opacity:0;"
         offset="1"
         id="stop3878" />
    </linearGradient>
    <clipPath
       id="clipPath892"
       clipPathUnits="userSpaceOnUse">
      <path
         inkscape:connector-curvature="0"
         id="path894"
         d="M 38.524123,20.232391 V 51.2388 h 3.597154 V 20.232391 Z M 14.125746,21.0025 V 52.010565 H 17.7229 V 21.0025 Z M 5.9924018,21.259203 V 52.267267 H 9.591212 V 21.259203 Z m 24.3983772,1.37129 v 31.006409 h 3.597153 V 22.630493 Z m -20.330877,1.626338 v 31.008065 h 3.597154 V 24.256831 Z m 24.396721,0.08612 v 31.008065 h 3.598809 V 24.342951 Z M 1.9265577,25.798705 V 56.80677 H 5.5237118 V 25.798705 Z m 16.2650323,0.08612 v 31.008064 h 3.597155 V 25.884825 Z m 24.398377,0 v 31.008064 h 3.597154 V 25.884825 Z m -16.265033,2.22752 v 31.006408 h 3.597155 V 28.112345 Z M 22.25909,30.76715 v 31.008065 h 3.597155 V 30.76715 Z"
         style="fill:#ffffff;fill-opacity:0.25520833;stroke:none;stroke-width:1.52630627;stroke-linecap:round;stroke-linejoin:round;stroke-miterlimit:4;stroke-dasharray:none;stroke-opacity:1" />
    </clipPath>
    <clipPath
       clipPathUnits="userSpaceOnUse"
       id="clipPath3881">
      <path
         sodipodi:type="arc"
         style="fill:#008dff;fill-opacity:1;fill-rule:evenodd;stroke:none"
         id="path3883"
         sodipodi:cx="539.5"
         sodipodi:cy="152.5"
         sodipodi:rx="103.5"
         sodipodi:ry="103.5"
         d="m 643,152.5 a 103.5,103.5 0 1 1 -207,0 103.5,103.5 0 1 1 207,0 z"
         transform="translate(-412,-17)" />
    </clipPath>
    <linearGradient
       id="linearGradient4019">
      <stop
         offset="0"
         style="stop-color:#adcce1;stop-opacity:1;"
         id="stop4021" />
      <stop
         offset="0.26238"
         style="stop-color:#6bbfe1;stop-opacity:1;"
         id="stop4023" />
      <stop
         offset="0.74620908"
         style="stop-color:#2596d1;stop-opacity:1;"
         id="stop4025" />
      <stop
         offset="1"
         style="stop-color:#2372c0;stop-opacity:1;"
         id="stop4027" />
    </linearGradient>
    <linearGradient
       id="linearGradient4085">
      <stop
         offset="0"
         style="stop-color:#ffffff;stop-opacity:1"
         id="stop4087" />
      <stop
         offset="0.06316455"
         style="stop-color:#ffffff;stop-opacity:0.2"
         id="stop4089" />
      <stop
         offset="0.95056331"
         style="stop-color:#ffffff;stop-opacity:0.2"
         id="stop4091" />
      <stop
         offset="1"
         style="stop-color:#ffffff;stop-opacity:0.39215687"
         id="stop4093" />
    </linearGradient>
    <filter
       id="filter3174"
       color-interpolation-filters="sRGB">
      <feGaussianBlur
         stdDeviation="1.71"
         id="feGaussianBlur3176" />
    </filter>
    <linearGradient
       gradientTransform="scale(1.0058652,0.994169)"
       gradientUnits="userSpaceOnUse"
       id="ButtonShadow"
       y2="7.0165396"
       x2="45.447727"
       y1="92.539597"
       x1="45.447727">
      <stop
         offset="0"
         style="stop-color:#000000;stop-opacity:1"
         id="stop3750" />
      <stop
         offset="1"
         style="stop-color:#000000;stop-opacity:0.58823532"
         id="stop3752" />
    </linearGradient>
    <linearGradient
       id="linearGradient5048-8-7">
      <stop
         offset="0"
         style="stop-color:#000000;stop-opacity:0"
         id="stop5050-4-2" />
      <stop
         offset="0.5"
         style="stop-color:#000000;stop-opacity:1"
         id="stop5056-7-4" />
      <stop
         offset="1"
         style="stop-color:#000000;stop-opacity:0"
         id="stop5052-0-1-7" />
    </linearGradient>
    <linearGradient
       id="linearGradient5060-29-0">
      <stop
         offset="0"
         style="stop-color:#000000;stop-opacity:1"
         id="stop5062-9-7" />
      <stop
         offset="1"
         style="stop-color:#000000;stop-opacity:0"
         id="stop5064-08-2" />
    </linearGradient>
    <linearGradient
       id="linearGradient3851">
      <stop
         id="stop3853"
         style="stop-color:#5b8da7;stop-opacity:1;"
         offset="0" />
      <stop
         id="stop3855"
         style="stop-color:#1c3447;stop-opacity:1;"
         offset="1" />
    </linearGradient>
    <filter
       id="filter3174-0"
       color-interpolation-filters="sRGB">
      <feGaussianBlur
         stdDeviation="1.71"
         id="feGaussianBlur3176-9" />
    </filter>
    <clipPath
       id="clipPath916"
       clipPathUnits="userSpaceOnUse">
      <g
         id="g920"
         inkscape:label="circulo"
         style="display:inline;opacity:0.98999999;fill:#126136;fill-opacity:1"
         transform="matrix(1.1503549,0,0,1.1503549,-4.4861245,-7.5255648)">
        <path
           style="fill:#126136;fill-opacity:1;stroke:none;stroke-width:1.4909519"
           d="M 44.322082,27.405077 A 19.729762,19.729765 0 0 1 24.59232,47.134842 19.729762,19.729765 0 0 1 4.8625579,27.405077 19.729762,19.729765 0 0 1 24.59232,7.6753138 19.729762,19.729765 0 0 1 44.322082,27.405077 Z"
           id="path918"
           inkscape:connector-curvature="0" />
      </g>
    </clipPath>
    <linearGradient
       id="linearGradient3764"
       x1="1"
       x2="47"
       gradientUnits="userSpaceOnUse"
       gradientTransform="rotate(-90,23.999998,24)">
      <stop
         stop-color="#0bb8f9"
         stop-opacity="1"
         id="stop7" />
      <stop
         offset="1"
         stop-color="#20bef9"
         stop-opacity="1"
         id="stop9" />
    </linearGradient>
    <clipPath
       id="clipPath-275571731">
      <g
         transform="translate(0,-1004.3622)"
         id="g12">
        <path
           d="m -24,13 c 0,1.105 -0.672,2 -1.5,2 -0.828,0 -1.5,-0.895 -1.5,-2 0,-1.105 0.672,-2 1.5,-2 0.828,0 1.5,0.895 1.5,2 z"
           transform="matrix(15.333333,0,0,11.5,414.99999,878.8622)"
           id="path14"
           inkscape:connector-curvature="0"
           style="fill:#1890d0" />
      </g>
    </clipPath>
    <clipPath
       id="clipPath-284952804">
      <g
         transform="translate(0,-1004.3622)"
         id="g17">
        <path
           d="m -24,13 c 0,1.105 -0.672,2 -1.5,2 -0.828,0 -1.5,-0.895 -1.5,-2 0,-1.105 0.672,-2 1.5,-2 0.828,0 1.5,0.895 1.5,2 z"
           transform="matrix(15.333333,0,0,11.5,414.99999,878.8622)"
           id="path19"
           inkscape:connector-curvature="0"
           style="fill:#1890d0" />
      </g>
    </clipPath>
    <linearGradient
       inkscape:collect="always"
       xlink:href="#linearGradient3764"
       id="linearGradient3806"
       gradientUnits="userSpaceOnUse"
       gradientTransform="rotate(-90,23.999998,24)"
       x1="1"
       x2="47" />
  </defs>
  <sodipodi:namedview
     pagecolor="#ffffff"
     bordercolor="#666666"
     borderopacity="1"
     objecttolerance="10"
     gridtolerance="10"
     guidetolerance="10"
     inkscape:pageopacity="0"
     inkscape:pageshadow="2"
     inkscape:window-width="1360"
     inkscape:window-height="740"
     id="namedview4"
     showgrid="false"
     inkscape:zoom="1.264"
     inkscape:cx="56.849778"
     inkscape:cy="65.756757"
     inkscape:window-x="0"
     inkscape:window-y="0"
     inkscape:window-maximized="1"
     inkscape:current-layer="svg2" />
  <path
     style="fill:#000000;stroke-width:1.33333337"
     d=""
     id="path849"
     inkscape:connector-curvature="0" />
  <path
     style="fill:#000000;stroke-width:1.33333337"
     d=""
     id="path847"
     inkscape:connector-curvature="0" />
  <path
     style="color:#000000;font-style:normal;font-variant:normal;font-weight:normal;font-stretch:normal;font-size:medium;line-height:normal;font-family:sans-serif;font-variant-ligatures:normal;font-variant-position:normal;font-variant-caps:normal;font-variant-numeric:normal;font-variant-alternates:normal;font-feature-settings:normal;text-indent:0;text-align:start;text-decoration:none;text-decoration-line:none;text-decoration-style:solid;text-decoration-color:#000000;letter-spacing:normal;word-spacing:normal;text-transform:none;writing-mode:lr-tb;direction:ltr;text-orientation:mixed;dominant-baseline:auto;baseline-shift:baseline;text-anchor:start;white-space:normal;shape-padding:0;clip-rule:nonzero;display:inline;overflow:visible;visibility:visible;opacity:1;isolation:auto;mix-blend-mode:normal;color-interpolation:sRGB;color-interpolation-filters:linearRGB;solid-color:#000000;solid-opacity:1;vector-effect:none;fill:url(#linearGradient840);fill-opacity:1;fill-rule:nonzero;stroke:none;stroke-width:4.64485502;stroke-linecap:butt;stroke-linejoin:miter;stroke-miterlimit:4;stroke-dasharray:none;stroke-dashoffset:0;stroke-opacity:1;color-rendering:auto;image-rendering:auto;shape-rendering:auto;text-rendering:auto;enable-background:accumulate"
     d="m 64.333592,1.3385313 c -34.704539,0 -62.8882778,28.1824517 -62.8882778,62.8869837 0,34.704538 28.1837388,62.888275 62.8882778,62.888275 34.704538,0 62.886978,-28.183737 62.886978,-62.888275 0,-34.704532 -28.18244,-62.8869837 -62.886978,-62.8869837 z"
     id="circle1062"
     inkscape:connector-curvature="0"
     sodipodi:nodetypes="sssss" />
  <path
     style="fill:#ffffff;fill-opacity:1"
     d="M 64.332031 7.4628906 A 56.76424 56.76424 0 0 0 7.5683594 64.226562 A 56.76424 56.76424 0 0 0 64.332031 120.99023 A 56.76424 56.76424 0 0 0 121.09766 64.226562 A 56.76424 56.76424 0 0 0 64.332031 7.4628906 z M 72.765625 36.117188 C 73.276765 36.102794 73.803304 36.16642 74.347656 36.3125 C 75.523756 36.628111 76.778241 37.3346 78.09375 38.503906 C 80.996532 41.089197 81.861272 43.350118 81.691406 45.261719 C 83.573705 44.874097 85.929176 45.477032 88.832031 48.054688 C 95.728654 54.179902 87.82313 60.863763 77.853516 63.548828 C 88.181618 64.8803 96.876189 70.314758 90.119141 77.888672 C 87.531331 80.782178 85.265072 81.648072 83.349609 81.476562 C 83.739565 83.35561 83.137261 85.702559 80.558594 88.597656 C 74.568886 95.315478 68.021472 87.943344 65.205078 78.322266 C 63.528857 88.201149 57.886885 96.273363 51.154297 90.285156 C 48.255387 87.704417 47.386297 85.440302 47.554688 83.529297 C 45.672091 83.918356 43.318895 83.318509 40.410156 80.740234 C 32.826609 73.999853 40.791842 67.615094 50.875 65.103516 C 40.677099 63.567908 32.083512 57.825201 38.210938 50.960938 C 40.794806 48.069765 43.061594 47.201544 44.976562 47.371094 C 44.584831 45.491829 45.183074 43.145439 47.763672 40.246094 C 54.712157 32.45764 61.277759 41.130692 63.636719 51.613281 C 64.481166 43.561431 67.824602 36.256327 72.765625 36.117188 z M 64.195312 64.142578 C 64.184213 64.206518 64.181512 64.276264 64.169922 64.339844 C 64.188562 64.342944 64.207813 64.342503 64.226562 64.345703 C 64.207122 64.278498 64.205213 64.209928 64.195312 64.142578 z "
     id="path844" />
</svg>

<svg width="128" height="128" version="1.1" viewBox="0 0 128 128" xmlns="http://www.w3.org/2000/svg">
<defs>
<linearGradient id="linearGradient840" x1="1.4453" x2="127.22" y1="64.226" y2="64.226" gradientUnits="userSpaceOnUse"/>
</defs>
<path d="m64.334 1.3385c-34.705 0-62.888 28.182-62.888 62.887 0 34.705 28.184 62.888 62.888 62.888 34.705 0 62.887-28.184 62.887-62.888 0-34.705-28.182-62.887-62.887-62.887z" color="#000000" color-rendering="auto" dominant-baseline="auto" fill="url(#linearGradient840)" image-rendering="auto" shape-rendering="auto" solid-color="#000000" style="font-feature-settings:normal;font-variant-alternates:normal;font-variant-caps:normal;font-variant-ligatures:normal;font-variant-numeric:normal;font-variant-position:normal;isolation:auto;mix-blend-mode:normal;shape-padding:0;text-decoration-color:#000000;text-decoration-line:none;text-decoration-style:solid;text-indent:0;text-orientation:mixed;text-transform:none;white-space:normal"/>
<path d="m64.332 7.4629a56.764 56.764 0 0 0-56.764 56.764 56.764 56.764 0 0 0 56.764 56.764 56.764 56.764 0 0 0 56.766-56.764 56.764 56.764 0 0 0-56.766-56.764zm8.4336 28.654c0.51114-0.014394 1.0377 0.049232 1.582 0.19531 1.1761 0.31561 2.4306 1.0221 3.7461 2.1914 2.9028 2.5853 3.7675 4.8462 3.5977 6.7578 1.8823-0.38762 4.2378 0.21531 7.1406 2.793 6.8966 6.1252-1.0089 12.809-10.979 15.494 10.328 1.3315 19.023 6.7659 12.266 14.34-2.5878 2.8935-4.8541 3.7594-6.7695 3.5879 0.38996 1.879-0.21235 4.226-2.791 7.1211-5.9897 6.7178-12.537-0.65431-15.354-10.275-1.6762 9.8789-7.3182 17.951-14.051 11.963-2.8989-2.5807-3.768-4.8449-3.5996-6.7559-1.8826 0.38906-4.2358-0.21079-7.1445-2.7891-7.5835-6.7404 0.38169-13.125 10.465-15.637-10.198-1.5356-18.791-7.2783-12.664-14.143 2.5839-2.8912 4.8507-3.7594 6.7656-3.5898-0.39173-1.8793 0.20651-4.2257 2.7871-7.125 6.9485-7.7885 13.514 0.8846 15.873 11.367 0.84445-8.0518 4.1879-15.357 9.1289-15.496zm-8.5703 28.025c-0.011099 0.06394-0.0138 0.13369-0.02539 0.19727 0.01864 0.0031 0.037891 0.002659 0.05664 0.005859-0.01944-0.067205-0.021349-0.13578-0.03125-0.20312z" fill="#fff"/>
</svg>
